X:1
T:Hopkin's -- Hornpipe
R:hornpipe
B:Cole's 1000 Fiddle Tunes
M:2/4
L:1/16
K:Bb
uF2|BABc BFdc|BABc BFdc|Bcde fdgf|edcB AFGA|
BABc BFBd|BABc BFBd|BfdB AFGA|[B2D2][B2D2][B2D2]:|
|:vAuB|cBAB cdec|dcBc defd|cBAB cded|cBAG Ffec|
BABc BFdF|BABc BFdc|BfdB AFGA|[B2D2][B2D2][B2D2]:|
